X: 4838
T: Boys On The Hilltop, The
R: reel
M: 4/4
K: Adorian
A3c BGAG|EGGF G2 AG|EA A2 BA (3Bcd|egdB BGdB|
A3c B2 AG|EGGF G2 AB|cA A2 B3c|dBGA BAAG||
A2 (3Bcd eBdB|GBdB defg|a2 fd egdB|GBdB BA A2|
a2 fd egdB|GBdB defg|a2 fd edef|g2 af gedB||
A3c B2 AG|EG G2 G2 AG|EA A2 BG (3Bcd|eBdB BAAG|
A3c BDAG|EG G2 D2 AB|c3A B3c|dBGA BAAG||
A2 (3Bcd egdB|GABc defg|a2 fd egdB|GBdB BA A2|
a2 fd (3efg dB|GA (3Bcd defg|(3agf (3gfe fdef|gbaf gedB||

